X:9
T:Emma
R:Waltz
O:Sweden
O:Finland
M:3/4
A:Dalarna
K:Am
Ac|\
e4 e2|c2A2 Ac|e4 e2|c2A2 Ac|B4 Bc|d2c2 B2|A6\
|1 E4 :|2 A4::
e2|\
a4 a2|a2g2f2|e4 e2|e2d2 c2|B3B c2|d2c2 B2|A6\
|1 E4:|2 A4||
